packages/eui/src/components/icon/svgs/thumb_up.svg

<svg width="16" height="16" viewBox="0 0 16 16" xmlns="http://www.w3.org/2000/svg">
<path d="M4 13.0007H3V11.0007H4V13.0007Z" />
<path fill-rule="evenodd" clip-rule="evenodd" d="M8.19727 1.78682C8.46389 0.978178 9.49322 0.739976 10.0879 1.34932C10.9977 2.28184 11.2563 3.6704 10.7432 4.86788L10.2588 5.99971H12.9971C14.2246 5.99971 15.1629 7.09552 14.9736 8.3083L14.2578 12.8855C14.0677 14.1024 13.0198 14.9997 11.7881 14.9997H8.80273C7.80683 14.9997 6.82863 14.7687 5.94238 14.3308C5.80568 14.7202 5.43616 14.9997 5 14.9997H2C1.44772 14.9997 1 14.552 1 13.9997V5.99971C1.00013 5.44754 1.4478 4.99971 2 4.99971H5C5.43644 4.99971 5.80686 5.2798 5.94336 5.66963C6.77462 5.05676 7.40306 4.19871 7.73047 3.20577L8.19727 1.78682ZM2 13.9997H5V5.99971H2V13.9997ZM9.37207 2.04756C9.30136 1.97537 9.17932 2.00344 9.14746 2.09932L8.67969 3.51827C8.21927 4.91487 7.26392 6.0901 6 6.82784V13.2204C6.8459 13.7275 7.81328 13.9997 8.80273 13.9997H11.7881C12.5271 13.9997 13.1564 13.4613 13.2705 12.7312L13.9854 8.15401C14.0799 7.54766 13.6108 6.99971 12.9971 6.99971H9.5C9.33199 6.99971 9.17554 6.91532 9.08301 6.7751C8.99062 6.63496 8.97411 6.45776 9.04004 6.30342L9.82422 4.47432C10.1781 3.64852 9.99947 2.69065 9.37207 2.04756Z" />
</svg>

<svg xmlns="http://www.w3.org/2000/svg" width="16" height="16" viewBox="0 0 16 16">
  <path d="M4 13H3v-2h1v2Z"/>
  <path fill-rule="evenodd" d="M8.197 1.787a1.135 1.135 0 0 1 1.89-.438 3.222 3.222 0 0 1 .656 3.519L10.26 6h2.738a2 2 0 0 1 1.977 2.308l-.716 4.578A2.5 2.5 0 0 1 11.788 15H8.803a6.457 6.457 0 0 1-2.86-.67A.999.999 0 0 1 5 15H2a1 1 0 0 1-1-1V6a1 1 0 0 1 1-1h3a1 1 0 0 1 .943.67A5.012 5.012 0 0 0 7.73 3.206l.467-1.42ZM2 14h3V6H2v8ZM9.372 2.048a.135.135 0 0 0-.225.051L8.68 3.52A6.012 6.012 0 0 1 6 6.827v6.392c.846.507 1.813.78 2.803.78h2.985a1.5 1.5 0 0 0 1.482-1.269l.715-4.577A1 1 0 0 0 12.997 7H9.5a.5.5 0 0 1-.46-.697l.784-1.829a2.222 2.222 0 0 0-.452-2.426Z" clip-rule="evenodd"/>
</svg>
